#src/img/svg/sec4-icon-2.svg

<svg width="100" height="100" viewBox="0 0 100 100" fill="none" xmlns="http://www.w3.org/2000/svg">
<path d="M43.75 6.25H46.875V18.75H43.75V6.25Z" fill="url(#paint0_linear_10112_16)"/>
<path d="M53.125 6.25H56.25V18.75H53.125V6.25Z" fill="url(#paint1_linear_10112_16)"/>
<path d="M65.625 21.875V0H34.375V21.875H28.125V100H71.875V21.875H65.625ZM37.5 3.125H62.5V21.875H37.5V3.125ZM68.75 96.875H31.25V25H68.75V96.875Z" fill="url(#paint2_linear_10112_16)"/>
<path d="M37.4998 62.2124V71.3425L48.4373 76.03V81.5376C46.2851 82.2983 44.9934 84.4994 45.3794 86.7493C45.7655 88.9999 47.7171 90.6441 49.9998 90.6441C52.2825 90.6441 54.2341 88.9999 54.6202 86.7493C55.0062 84.4994 53.7146 82.2983 51.5623 81.5376V70.2126L62.4998 60.0563V53.125H65.6248V43.75H56.2498V53.125H59.3748V58.6922L51.5623 65.9485V37.1094L54.6202 40.1672L56.8296 37.9578L49.9998 31.1279L43.17 37.9578L45.3794 40.1672L48.4373 37.1094V72.6311L40.6248 69.2825V62.2124C42.7771 61.4517 44.0687 59.2506 43.6827 57.0007C43.2966 54.7501 41.345 53.1059 39.0623 53.1059C36.7796 53.1059 34.828 54.7501 34.4419 57.0007C34.0559 59.2506 35.3476 61.4517 37.4998 62.2124ZM59.3748 46.875H62.4998V50H59.3748V46.875ZM49.9998 84.375C50.8627 84.375 51.5623 85.0746 51.5623 85.9375C51.5623 86.8004 50.8627 87.5 49.9998 87.5C49.1369 87.5 48.4373 86.8004 48.4373 85.9375C48.4373 85.0746 49.1369 84.375 49.9998 84.375ZM39.0623 56.25C39.9252 56.25 40.6248 56.9496 40.6248 57.8125C40.6248 58.6754 39.9252 59.375 39.0623 59.375C38.1994 59.375 37.4998 58.6754 37.4998 57.8125C37.4998 56.9496 38.1994 56.25 39.0623 56.25Z" fill="url(#paint3_linear_10112_16)"/>
<defs>
<linearGradient id="paint0_linear_10112_16" x1="44.0694" y1="6.25" x2="46.779" y2="6.30049" gradientUnits="userSpaceOnUse">
<stop stop-color="#C89AFC"/>
<stop offset="1" stop-color="#7C6AFA"/>
</linearGradient>
<linearGradient id="paint1_linear_10112_16" x1="53.4444" y1="6.25" x2="56.154" y2="6.30049" gradientUnits="userSpaceOnUse">
<stop stop-color="#C89AFC"/>
<stop offset="1" stop-color="#7C6AFA"/>
</linearGradient>
<linearGradient id="paint2_linear_10112_16" x1="32.5967" y1="-1.0863e-05" x2="70.5032" y2="1.23613" gradientUnits="userSpaceOnUse">
<stop stop-color="#C89AFC"/>
<stop offset="1" stop-color="#7C6AFA"/>
</linearGradient>
<linearGradient id="paint3_linear_10112_16" x1="37.5682" y1="31.1279" x2="64.6322" y2="32.1872" gradientUnits="userSpaceOnUse">
<stop stop-color="#C89AFC"/>
<stop offset="1" stop-color="#7C6AFA"/>
</linearGradient>
</defs>
</svg>

<svg width="100" height="100" fill="none" xmlns="http://www.w3.org/2000/svg"><path d="M43.75 6.25h3.125v12.5H43.75V6.25z" fill="url(#paint0_linear_10112_16)"/><path d="M53.125 6.25h3.125v12.5h-3.125V6.25z" fill="url(#paint1_linear_10112_16)"/><path d="M65.625 21.875V0h-31.25v21.875h-6.25V100h43.75V21.875h-6.25zM37.5 3.125h25v18.75h-25V3.125zm31.25 93.75h-37.5V25h37.5v71.875z" fill="url(#paint2_linear_10112_16)"/><path d="M37.5 62.212v9.13l10.937 4.688v5.508a4.688 4.688 0 103.125 0V70.213L62.5 60.056v-6.931h3.125V43.75H56.25v9.375h3.125v5.567l-7.813 7.256V37.11l3.058 3.058 2.21-2.21-6.83-6.83-6.83 6.83 2.21 2.21 3.057-3.058v35.522l-7.812-3.349v-7.07a4.687 4.687 0 10-3.125 0zm21.875-15.337H62.5V50h-3.125v-3.125zM50 84.375a1.563 1.563 0 110 3.125 1.563 1.563 0 010-3.125zM39.062 56.25a1.563 1.563 0 110 3.125 1.563 1.563 0 010-3.125z" fill="url(#paint3_linear_10112_16)"/><defs><linearGradient id="paint0_linear_10112_16" x1="44.069" y1="6.25" x2="46.779" y2="6.3" gradientUnits="userSpaceOnUse"><stop stop-color="#C89AFC"/><stop offset="1" stop-color="#7C6AFA"/></linearGradient><linearGradient id="paint1_linear_10112_16" x1="53.444" y1="6.25" x2="56.154" y2="6.3" gradientUnits="userSpaceOnUse"><stop stop-color="#C89AFC"/><stop offset="1" stop-color="#7C6AFA"/></linearGradient><linearGradient id="paint2_linear_10112_16" x1="32.597" y1="0" x2="70.503" y2="1.236" gradientUnits="userSpaceOnUse"><stop stop-color="#C89AFC"/><stop offset="1" stop-color="#7C6AFA"/></linearGradient><linearGradient id="paint3_linear_10112_16" x1="37.568" y1="31.128" x2="64.632" y2="32.187" gradientUnits="userSpaceOnUse"><stop stop-color="#C89AFC"/><stop offset="1" stop-color="#7C6AFA"/></linearGradient></defs></svg>
